X: 2431
T: UNCLE TOM'S JIG
B: Kerr's v.2 p.49 #431
Z: 2016 John Chambers <jc:trillian.mit.edu>
M: C
L: 1/8
K: G
D !segno!|\
GBdf gb zb | afge dB zc |\
DFAB ce ze | dBcA G2z :|
D |:\
G2BG AGE2 | G2BG FA zD |\
G2BG AG zf |[1 gedc BGAF :|[2 gfaf ge"_D.C."dB !segno!|]
